images/3233982.svg

<?xml version="1.0" encoding="UTF-8"?>
<svg xmlns="http://www.w3.org/2000/svg" xmlns:xlink="http://www.w3.org/1999/xlink" width="300pt" height="300pt" viewBox="0 0 300 300" version="1.1">
<defs>
<g>
<symbol overflow="visible" id="glyph0-0">
<path style="stroke:none;" d="M 0.453125 1.59375 L 0.453125 -6.34375 L 4.953125 -6.34375 L 4.953125 1.59375 Z M 0.953125 1.09375 L 4.453125 1.09375 L 4.453125 -5.84375 L 0.953125 -5.84375 Z M 0.953125 1.09375 "/>
</symbol>
<symbol overflow="visible" id="glyph0-1">
<path style="stroke:none;" d="M 3.546875 -5.953125 C 2.898438 -5.953125 2.382812 -5.710938 2 -5.234375 C 1.625 -4.753906 1.4375 -4.101562 1.4375 -3.28125 C 1.4375 -2.445312 1.625 -1.789062 2 -1.3125 C 2.382812 -0.832031 2.898438 -0.59375 3.546875 -0.59375 C 4.191406 -0.59375 4.703125 -0.832031 5.078125 -1.3125 C 5.453125 -1.789062 5.640625 -2.445312 5.640625 -3.28125 C 5.640625 -4.101562 5.453125 -4.753906 5.078125 -5.234375 C 4.703125 -5.710938 4.191406 -5.953125 3.546875 -5.953125 Z M 3.546875 -6.6875 C 4.460938 -6.6875 5.195312 -6.375 5.75 -5.75 C 6.300781 -5.132812 6.578125 -4.3125 6.578125 -3.28125 C 6.578125 -2.238281 6.300781 -1.410156 5.75 -0.796875 C 5.195312 -0.179688 4.460938 0.125 3.546875 0.125 C 2.617188 0.125 1.878906 -0.179688 1.328125 -0.796875 C 0.773438 -1.410156 0.5 -2.238281 0.5 -3.28125 C 0.5 -4.3125 0.773438 -5.132812 1.328125 -5.75 C 1.878906 -6.375 2.617188 -6.6875 3.546875 -6.6875 Z M 3.546875 -6.6875 "/>
</symbol>
<symbol overflow="visible" id="glyph0-2">
<path style="stroke:none;" d="M 0.890625 -6.5625 L 2.078125 -6.5625 L 4.984375 -1.078125 L 4.984375 -6.5625 L 5.84375 -6.5625 L 5.84375 0 L 4.65625 0 L 1.75 -5.484375 L 1.75 0 L 0.890625 0 Z M 0.890625 -6.5625 "/>
</symbol>
<symbol overflow="visible" id="glyph0-3">
<path style="stroke:none;" d="M 0.890625 -6.5625 L 1.765625 -6.5625 L 1.765625 -3.875 L 5 -3.875 L 5 -6.5625 L 5.890625 -6.5625 L 5.890625 0 L 5 0 L 5 -3.125 L 1.765625 -3.125 L 1.765625 0 L 0.890625 0 Z M 0.890625 -6.5625 "/>
</symbol>
</g>
</defs>
<g id="surface51493">
<rect x="0" y="0" width="300" height="300" style="fill:rgb(100%,100%,100%);fill-opacity:1;stroke:none;"/>
<path style="fill:none;stroke-width:1.2;stroke-linecap:butt;stroke-linejoin:miter;stroke:rgb(0%,0%,0%);stroke-opacity:1;stroke-miterlimit:10;" d="M 176.550781 214.273438 L 179.976562 204.550781 "/>
<path style="fill:none;stroke-width:1.2;stroke-linecap:butt;stroke-linejoin:miter;stroke:rgb(100%,0%,0%);stroke-opacity:1;stroke-miterlimit:10;" d="M 179.976562 204.550781 L 183.402344 194.828125 "/>
<path style="fill:none;stroke-width:1.2;stroke-linecap:butt;stroke-linejoin:miter;stroke:rgb(100%,0%,0%);stroke-opacity:1;stroke-miterlimit:10;" d="M 183.402344 194.828125 L 176.691406 187 "/>
<path style="fill:none;stroke-width:1.2;stroke-linecap:butt;stroke-linejoin:miter;stroke:rgb(0%,0%,0%);stroke-opacity:1;stroke-miterlimit:10;" d="M 176.691406 187 L 169.984375 179.171875 "/>
<path style=" stroke:none;fill-rule:nonzero;fill:rgb(100%,100%,100%);fill-opacity:1;" d="M 179.402344 189.328125 L 187.402344 189.328125 L 187.402344 200.328125 L 179.402344 200.328125 Z M 179.402344 189.328125 "/>
<g style="fill:rgb(100%,0%,0%);fill-opacity:1;">
  <use xlink:href="#glyph0-1" x="179.402344" y="197.991211"/>
</g>
<path style="fill:none;stroke-width:1.2;stroke-linecap:butt;stroke-linejoin:miter;stroke:rgb(0%,0%,0%);stroke-opacity:1;stroke-miterlimit:10;" d="M 169.984375 179.171875 L 176.835938 159.722656 "/>
<path style="fill:none;stroke-width:1.2;stroke-linecap:butt;stroke-linejoin:miter;stroke:rgb(0%,0%,0%);stroke-opacity:1;stroke-miterlimit:10;" d="M 176.835938 159.722656 L 170.125 151.894531 "/>
<path style="fill:none;stroke-width:1.2;stroke-linecap:butt;stroke-linejoin:miter;stroke:rgb(0%,0%,100%);stroke-opacity:1;stroke-miterlimit:10;" d="M 170.125 151.894531 L 163.417969 144.066406 "/>
<path style="fill:none;stroke-width:1.2;stroke-linecap:butt;stroke-linejoin:miter;stroke:rgb(0%,0%,100%);stroke-opacity:1;stroke-miterlimit:10;" d="M 163.417969 144.066406 L 166.84375 134.34375 "/>
<path style="fill:none;stroke-width:1.2;stroke-linecap:butt;stroke-linejoin:miter;stroke:rgb(0%,0%,0%);stroke-opacity:1;stroke-miterlimit:10;" d="M 166.84375 134.34375 L 170.265625 124.621094 "/>
<path style="fill:none;stroke-width:1.2;stroke-linecap:butt;stroke-linejoin:miter;stroke:rgb(0%,0%,0%);stroke-opacity:1;stroke-miterlimit:10;" d="M 143.152344 147.859375 L 153.285156 145.964844 "/>
<path style="fill:none;stroke-width:1.2;stroke-linecap:butt;stroke-linejoin:miter;stroke:rgb(0%,0%,100%);stroke-opacity:1;stroke-miterlimit:10;" d="M 153.285156 145.964844 L 163.417969 144.066406 "/>
<path style=" stroke:none;fill-rule:nonzero;fill:rgb(100%,100%,100%);fill-opacity:1;" d="M 160.417969 138.566406 L 167.417969 138.566406 L 167.417969 149.566406 L 160.417969 149.566406 Z M 160.417969 138.566406 "/>
<g style="fill:rgb(0%,0%,100%);fill-opacity:1;">
  <use xlink:href="#glyph0-2" x="160.417969" y="147.229492"/>
</g>
<path style="fill:none;stroke-width:1.2;stroke-linecap:butt;stroke-linejoin:miter;stroke:rgb(0%,0%,0%);stroke-opacity:1;stroke-miterlimit:10;" d="M 170.265625 124.621094 L 180.398438 122.726562 "/>
<path style="fill:none;stroke-width:1.2;stroke-linecap:butt;stroke-linejoin:miter;stroke:rgb(0%,0%,100%);stroke-opacity:1;stroke-miterlimit:10;" d="M 180.398438 122.726562 L 190.53125 120.828125 "/>
<path style="fill:none;stroke-width:1.2;stroke-linecap:butt;stroke-linejoin:miter;stroke:rgb(0%,0%,0%);stroke-opacity:1;stroke-miterlimit:10;" d="M 171.402344 119.472656 L 179.507812 117.957031 "/>
<path style="fill:none;stroke-width:1.2;stroke-linecap:butt;stroke-linejoin:miter;stroke:rgb(0%,0%,100%);stroke-opacity:1;stroke-miterlimit:10;" d="M 179.507812 117.957031 L 187.613281 116.441406 "/>
<path style="fill:none;stroke-width:1.2;stroke-linecap:butt;stroke-linejoin:miter;stroke:rgb(0%,0%,0%);stroke-opacity:1;stroke-miterlimit:10;" d="M 156.847656 108.964844 L 170.265625 124.621094 "/>
<path style="fill:none;stroke-width:1.2;stroke-linecap:butt;stroke-linejoin:miter;stroke:rgb(0%,0%,100%);stroke-opacity:1;stroke-miterlimit:10;" d="M 190.53125 120.828125 L 193.957031 111.105469 "/>
<path style="fill:none;stroke-width:1.2;stroke-linecap:butt;stroke-linejoin:miter;stroke:rgb(0%,0%,0%);stroke-opacity:1;stroke-miterlimit:10;" d="M 193.957031 111.105469 L 197.382812 101.382812 "/>
<path style=" stroke:none;fill-rule:nonzero;fill:rgb(100%,100%,100%);fill-opacity:1;" d="M 187.53125 115.328125 L 194.53125 115.328125 L 194.53125 126.328125 L 187.53125 126.328125 Z M 187.53125 115.328125 "/>
<g style="fill:rgb(0%,0%,100%);fill-opacity:1;">
  <use xlink:href="#glyph0-2" x="187.53125" y="123.991211"/>
</g>
<path style="fill:none;stroke-width:1.2;stroke-linecap:butt;stroke-linejoin:miter;stroke:rgb(0%,0%,0%);stroke-opacity:1;stroke-miterlimit:10;" d="M 197.382812 101.382812 L 190.675781 93.554688 "/>
<path style="fill:none;stroke-width:1.2;stroke-linecap:butt;stroke-linejoin:miter;stroke:rgb(0%,0%,100%);stroke-opacity:1;stroke-miterlimit:10;" d="M 190.675781 93.554688 L 183.964844 85.726562 "/>
<path style="fill:none;stroke-width:1.2;stroke-linecap:butt;stroke-linejoin:miter;stroke:rgb(0%,0%,0%);stroke-opacity:1;stroke-miterlimit:10;" d="M 192.355469 102.972656 L 186.992188 96.710938 "/>
<path style="fill:none;stroke-width:1.2;stroke-linecap:butt;stroke-linejoin:miter;stroke:rgb(0%,0%,100%);stroke-opacity:1;stroke-miterlimit:10;" d="M 186.992188 96.710938 L 181.625 90.449219 "/>
<path style="fill:none;stroke-width:1.2;stroke-linecap:butt;stroke-linejoin:miter;stroke:rgb(0%,0%,0%);stroke-opacity:1;stroke-miterlimit:10;" d="M 197.382812 101.382812 L 207.515625 99.484375 "/>
<path style="fill:none;stroke-width:1.2;stroke-linecap:butt;stroke-linejoin:miter;stroke:rgb(0%,0%,100%);stroke-opacity:1;stroke-miterlimit:10;" d="M 207.515625 99.484375 L 217.648438 97.589844 "/>
<path style="fill:none;stroke-width:1.2;stroke-linecap:butt;stroke-linejoin:miter;stroke:rgb(0%,0%,100%);stroke-opacity:1;stroke-miterlimit:10;" d="M 183.964844 85.726562 L 173.832031 87.621094 "/>
<path style="fill:none;stroke-width:1.2;stroke-linecap:butt;stroke-linejoin:miter;stroke:rgb(0%,0%,0%);stroke-opacity:1;stroke-miterlimit:10;" d="M 173.832031 87.621094 L 163.699219 89.519531 "/>
<path style=" stroke:none;fill-rule:nonzero;fill:rgb(100%,100%,100%);fill-opacity:1;" d="M 180.964844 80.226562 L 187.964844 80.226562 L 187.964844 91.226562 L 180.964844 91.226562 Z M 180.964844 80.226562 "/>
<g style="fill:rgb(0%,0%,100%);fill-opacity:1;">
  <use xlink:href="#glyph0-2" x="180.964844" y="88.889648"/>
</g>
<path style="fill:none;stroke-width:1.2;stroke-linecap:butt;stroke-linejoin:miter;stroke:rgb(0%,0%,0%);stroke-opacity:1;stroke-miterlimit:10;" d="M 163.699219 89.519531 L 156.847656 108.964844 "/>
<path style="fill:none;stroke-width:1.2;stroke-linecap:butt;stroke-linejoin:miter;stroke:rgb(0%,0%,0%);stroke-opacity:1;stroke-miterlimit:10;" d="M 167.589844 93.074219 L 162.109375 108.632812 "/>
<path style="fill:none;stroke-width:1.2;stroke-linecap:butt;stroke-linejoin:miter;stroke:rgb(0%,0%,0%);stroke-opacity:1;stroke-miterlimit:10;" d="M 156.847656 108.964844 L 146.714844 110.859375 "/>
<path style="fill:none;stroke-width:1.2;stroke-linecap:butt;stroke-linejoin:miter;stroke:rgb(0%,0%,100%);stroke-opacity:1;stroke-miterlimit:10;" d="M 146.714844 110.859375 L 136.582031 112.757812 "/>
<path style="fill:none;stroke-width:1.2;stroke-linecap:butt;stroke-linejoin:miter;stroke:rgb(0%,0%,100%);stroke-opacity:1;stroke-miterlimit:10;" d="M 136.582031 112.757812 L 133.15625 122.480469 "/>
<path style="fill:none;stroke-width:1.2;stroke-linecap:butt;stroke-linejoin:miter;stroke:rgb(0%,0%,0%);stroke-opacity:1;stroke-miterlimit:10;" d="M 133.15625 122.480469 L 129.734375 132.203125 "/>
<path style="fill:none;stroke-width:1.2;stroke-linecap:butt;stroke-linejoin:miter;stroke:rgb(0%,0%,100%);stroke-opacity:1;stroke-miterlimit:10;" d="M 140.472656 116.3125 L 137.734375 124.09375 "/>
<path style="fill:none;stroke-width:1.2;stroke-linecap:butt;stroke-linejoin:miter;stroke:rgb(0%,0%,0%);stroke-opacity:1;stroke-miterlimit:10;" d="M 137.734375 124.09375 L 134.996094 131.871094 "/>
<path style=" stroke:none;fill-rule:nonzero;fill:rgb(100%,100%,100%);fill-opacity:1;" d="M 133.582031 107.257812 L 140.582031 107.257812 L 140.582031 118.257812 L 133.582031 118.257812 Z M 133.582031 107.257812 "/>
<g style="fill:rgb(0%,0%,100%);fill-opacity:1;">
  <use xlink:href="#glyph0-2" x="133.582031" y="115.920898"/>
</g>
<path style="fill:none;stroke-width:1.2;stroke-linecap:butt;stroke-linejoin:miter;stroke:rgb(0%,0%,0%);stroke-opacity:1;stroke-miterlimit:10;" d="M 129.734375 132.203125 L 143.152344 147.859375 "/>
<path style="fill:none;stroke-width:1.2;stroke-linecap:butt;stroke-linejoin:miter;stroke:rgb(0%,0%,0%);stroke-opacity:1;stroke-miterlimit:10;" d="M 129.734375 132.203125 L 109.46875 135.996094 "/>
<path style="fill:none;stroke-width:1.2;stroke-linecap:butt;stroke-linejoin:miter;stroke:rgb(0%,0%,0%);stroke-opacity:1;stroke-miterlimit:10;" d="M 140.863281 147.054688 L 137.4375 156.777344 "/>
<path style="fill:none;stroke-width:1.2;stroke-linecap:butt;stroke-linejoin:miter;stroke:rgb(100%,0%,0%);stroke-opacity:1;stroke-miterlimit:10;" d="M 137.4375 156.777344 L 134.011719 166.5 "/>
<path style="fill:none;stroke-width:1.2;stroke-linecap:butt;stroke-linejoin:miter;stroke:rgb(0%,0%,0%);stroke-opacity:1;stroke-miterlimit:10;" d="M 145.4375 148.664062 L 142.011719 158.390625 "/>
<path style="fill:none;stroke-width:1.2;stroke-linecap:butt;stroke-linejoin:miter;stroke:rgb(100%,0%,0%);stroke-opacity:1;stroke-miterlimit:10;" d="M 142.011719 158.390625 L 138.589844 168.113281 "/>
<path style=" stroke:none;fill-rule:nonzero;fill:rgb(100%,100%,100%);fill-opacity:1;" d="M 128.300781 161.808594 L 136.300781 161.808594 L 136.300781 172.808594 L 128.300781 172.808594 Z M 128.300781 161.808594 "/>
<g style="fill:rgb(100%,0%,0%);fill-opacity:1;">
  <use xlink:href="#glyph0-1" x="128.300781" y="170.47168"/>
</g>
<path style="fill:none;stroke-width:1.2;stroke-linecap:butt;stroke-linejoin:miter;stroke:rgb(0%,0%,0%);stroke-opacity:1;stroke-miterlimit:10;" d="M 109.46875 135.996094 L 96.050781 120.339844 "/>
<path style="fill:none;stroke-width:1.2;stroke-linecap:butt;stroke-linejoin:miter;stroke:rgb(0%,0%,0%);stroke-opacity:1;stroke-miterlimit:10;" d="M 96.050781 120.339844 L 75.78125 124.132812 "/>
<path style="fill:none;stroke-width:1.2;stroke-linecap:butt;stroke-linejoin:miter;stroke:rgb(0%,0%,0%);stroke-opacity:1;stroke-miterlimit:10;" d="M 75.78125 124.132812 L 62.367188 108.476562 "/>
<path style="fill:none;stroke-width:1.2;stroke-linecap:butt;stroke-linejoin:miter;stroke:rgb(0%,0%,0%);stroke-opacity:1;stroke-miterlimit:10;" d="M 70.757812 125.722656 L 60.023438 113.199219 "/>
<path style="fill:none;stroke-width:1.2;stroke-linecap:butt;stroke-linejoin:miter;stroke:rgb(0%,0%,0%);stroke-opacity:1;stroke-miterlimit:10;" d="M 68.933594 143.578125 L 75.78125 124.132812 "/>
<path style="fill:none;stroke-width:1.2;stroke-linecap:butt;stroke-linejoin:miter;stroke:rgb(0%,0%,0%);stroke-opacity:1;stroke-miterlimit:10;" d="M 62.367188 108.476562 L 42.097656 112.269531 "/>
<path style="fill:none;stroke-width:1.2;stroke-linecap:butt;stroke-linejoin:miter;stroke:rgb(0%,0%,0%);stroke-opacity:1;stroke-miterlimit:10;" d="M 42.097656 112.269531 L 35.25 131.714844 "/>
<path style="fill:none;stroke-width:1.2;stroke-linecap:butt;stroke-linejoin:miter;stroke:rgb(0%,0%,0%);stroke-opacity:1;stroke-miterlimit:10;" d="M 45.992188 115.824219 L 40.511719 131.382812 "/>
<path style="fill:none;stroke-width:1.2;stroke-linecap:butt;stroke-linejoin:miter;stroke:rgb(0%,0%,0%);stroke-opacity:1;stroke-miterlimit:10;" d="M 35.25 131.714844 L 48.667969 147.371094 "/>
<path style="fill:none;stroke-width:1.2;stroke-linecap:butt;stroke-linejoin:miter;stroke:rgb(0%,0%,0%);stroke-opacity:1;stroke-miterlimit:10;" d="M 48.667969 147.371094 L 68.933594 143.578125 "/>
<path style="fill:none;stroke-width:1.2;stroke-linecap:butt;stroke-linejoin:miter;stroke:rgb(0%,0%,0%);stroke-opacity:1;stroke-miterlimit:10;" d="M 49.800781 142.222656 L 66.015625 139.191406 "/>
<path style="fill:none;stroke-width:1.2;stroke-linecap:butt;stroke-linejoin:miter;stroke:rgb(0%,0%,100%);stroke-opacity:1;stroke-miterlimit:10;" d="M 217.648438 97.589844 L 224.359375 105.417969 "/>
<path style="fill:none;stroke-width:1.2;stroke-linecap:butt;stroke-linejoin:miter;stroke:rgb(0%,0%,0%);stroke-opacity:1;stroke-miterlimit:10;" d="M 224.359375 105.417969 L 231.066406 113.246094 "/>
<path style=" stroke:none;fill-rule:nonzero;fill:rgb(100%,100%,100%);fill-opacity:1;" d="M 210.648438 92.089844 L 224.648438 92.089844 L 224.648438 103.089844 L 210.648438 103.089844 Z M 210.648438 92.089844 "/>
<g style="fill:rgb(0%,0%,100%);fill-opacity:1;">
  <use xlink:href="#glyph0-2" x="210.648438" y="100.75293"/>
  <use xlink:href="#glyph0-3" x="217.625977" y="100.75293"/>
</g>
<path style="fill:none;stroke-width:1.2;stroke-linecap:butt;stroke-linejoin:miter;stroke:rgb(0%,0%,0%);stroke-opacity:1;stroke-miterlimit:10;" d="M 231.066406 113.246094 L 224.21875 132.691406 "/>
<path style="fill:none;stroke-width:1.2;stroke-linecap:butt;stroke-linejoin:miter;stroke:rgb(0%,0%,0%);stroke-opacity:1;stroke-miterlimit:10;" d="M 234.957031 116.800781 L 229.476562 132.359375 "/>
<path style="fill:none;stroke-width:1.2;stroke-linecap:butt;stroke-linejoin:miter;stroke:rgb(0%,0%,0%);stroke-opacity:1;stroke-miterlimit:10;" d="M 251.332031 109.453125 L 231.066406 113.246094 "/>
<path style="fill:none;stroke-width:1.2;stroke-linecap:butt;stroke-linejoin:miter;stroke:rgb(0%,0%,0%);stroke-opacity:1;stroke-miterlimit:10;" d="M 224.21875 132.691406 L 237.632812 148.347656 "/>
<path style="fill:none;stroke-width:1.2;stroke-linecap:butt;stroke-linejoin:miter;stroke:rgb(0%,0%,0%);stroke-opacity:1;stroke-miterlimit:10;" d="M 237.632812 148.347656 L 257.902344 144.554688 "/>
<path style="fill:none;stroke-width:1.2;stroke-linecap:butt;stroke-linejoin:miter;stroke:rgb(0%,0%,0%);stroke-opacity:1;stroke-miterlimit:10;" d="M 238.769531 143.199219 L 254.980469 140.167969 "/>
<path style="fill:none;stroke-width:1.2;stroke-linecap:butt;stroke-linejoin:miter;stroke:rgb(0%,0%,0%);stroke-opacity:1;stroke-miterlimit:10;" d="M 257.902344 144.554688 L 264.75 125.109375 "/>
<path style="fill:none;stroke-width:1.2;stroke-linecap:butt;stroke-linejoin:miter;stroke:rgb(0%,0%,0%);stroke-opacity:1;stroke-miterlimit:10;" d="M 264.75 125.109375 L 251.332031 109.453125 "/>
<path style="fill:none;stroke-width:1.2;stroke-linecap:butt;stroke-linejoin:miter;stroke:rgb(0%,0%,0%);stroke-opacity:1;stroke-miterlimit:10;" d="M 259.726562 126.699219 L 248.992188 114.175781 "/>
</g>
</svg>

<svg xmlns="http://www.w3.org/2000/svg" xmlns:xlink="http://www.w3.org/1999/xlink" width="300pt" height="300pt" viewBox="0 0 300 300"><defs><symbol overflow="visible"><path d="M.453 1.594v-7.938h4.5v7.938zm.5-.5h3.5v-6.938h-3.5zm0 0"/></symbol><symbol overflow="visible" id="a"><path d="M3.547-5.953c-.65 0-1.164.242-1.547.72-.375.48-.563 1.13-.563 1.952 0 .835.188 1.49.563 1.967.383.48.898.72 1.547.72.644 0 1.156-.24 1.53-.72.376-.476.564-1.132.564-1.968 0-.822-.187-1.474-.562-1.954-.375-.477-.887-.72-1.53-.72zm0-.734c.914 0 1.648.312 2.203.937.55.617.828 1.438.828 2.47 0 1.042-.277 1.87-.828 2.483-.555.617-1.29.922-2.203.922-.93 0-1.668-.305-2.22-.922C.774-1.41.5-2.237.5-3.28c0-1.033.273-1.853.828-2.47.55-.625 1.29-.938 2.22-.938zm0 0"/></symbol><symbol overflow="visible" id="b"><path d="M.89-6.563H2.08l2.906 5.485v-5.484h.86V0H4.656L1.75-5.484V0H.89zm0 0"/></symbol><symbol overflow="visible" id="c"><path d="M.89-6.563h.876v2.688H5v-2.688h.89V0H5v-3.125H1.766V0H.89zm0 0"/></symbol></defs><g><path fill="#fff" d="M0 0h300v300H0z"/><path d="M176.55 214.273l3.427-9.722" stroke-width="1.2" stroke="#000" stroke-miterlimit="10" fill="none"/><path d="M179.977 204.55l3.425-9.722M183.402 194.828l-6.71-7.828" stroke-width="1.2" stroke="#f00" stroke-miterlimit="10" fill="none"/><path d="M176.69 187l-6.706-7.828" stroke-width="1.2" stroke="#000" stroke-miterlimit="10" fill="none"/><path d="M179.402 189.328h8v11h-8zm0 0" fill="#fff"/><use xlink:href="#a" x="179.402" y="197.991" fill="#f00"/><path d="M169.984 179.172l6.852-19.45M176.836 159.723l-6.71-7.828" stroke-width="1.2" stroke="#000" stroke-miterlimit="10" fill="none"/><path d="M170.125 151.895l-6.707-7.83M163.418 144.066l3.426-9.722" stroke-width="1.2" stroke="#00f" stroke-miterlimit="10" fill="none"/><path d="M166.844 134.344l3.422-9.723M143.152 147.86l10.133-1.895" stroke-width="1.2" stroke="#000" stroke-miterlimit="10" fill="none"/><path d="M153.285 145.965l10.133-1.9" stroke-width="1.2" stroke="#00f" stroke-miterlimit="10" fill="none"/><path d="M160.418 138.566h7v11h-7zm0 0" fill="#fff"/><use xlink:href="#b" x="160.418" y="147.229" fill="#00f"/><path d="M170.266 124.62l10.132-1.893" stroke-width="1.2" stroke="#000" stroke-miterlimit="10" fill="none"/><path d="M180.398 122.727l10.133-1.9" stroke-width="1.2" stroke="#00f" stroke-miterlimit="10" fill="none"/><path d="M171.402 119.473l8.106-1.516" stroke-width="1.2" stroke="#000" stroke-miterlimit="10" fill="none"/><path d="M179.508 117.957l8.105-1.516" stroke-width="1.2" stroke="#00f" stroke-miterlimit="10" fill="none"/><path d="M156.848 108.965l13.418 15.656" stroke-width="1.2" stroke="#000" stroke-miterlimit="10" fill="none"/><path d="M190.53 120.828l3.427-9.723" stroke-width="1.2" stroke="#00f" stroke-miterlimit="10" fill="none"/><path d="M193.957 111.105l3.426-9.722" stroke-width="1.2" stroke="#000" stroke-miterlimit="10" fill="none"/><path d="M187.53 115.328h7v11h-7zm0 0" fill="#fff"/><use xlink:href="#b" x="187.531" y="123.991" fill="#00f"/><path d="M197.383 101.383l-6.707-7.828" stroke-width="1.2" stroke="#000" stroke-miterlimit="10" fill="none"/><path d="M190.676 93.555l-6.71-7.828" stroke-width="1.2" stroke="#00f" stroke-miterlimit="10" fill="none"/><path d="M192.355 102.973l-5.363-6.262" stroke-width="1.2" stroke="#000" stroke-miterlimit="10" fill="none"/><path d="M186.992 96.71l-5.367-6.26" stroke-width="1.2" stroke="#00f" stroke-miterlimit="10" fill="none"/><path d="M197.383 101.383l10.133-1.9" stroke-width="1.2" stroke="#000" stroke-miterlimit="10" fill="none"/><path d="M207.516 99.484l10.132-1.894M183.965 85.727l-10.133 1.894" stroke-width="1.2" stroke="#00f" stroke-miterlimit="10" fill="none"/><path d="M173.832 87.62l-10.133 1.9" stroke-width="1.2" stroke="#000" stroke-miterlimit="10" fill="none"/><path d="M180.965 80.227h7v11h-7zm0 0" fill="#fff"/><use xlink:href="#b" x="180.965" y="88.89" fill="#00f"/><path d="M163.7 89.52l-6.852 19.445M167.59 93.074l-5.48 15.56M156.848 108.965l-10.133 1.894" stroke-width="1.2" stroke="#000" stroke-miterlimit="10" fill="none"/><path d="M146.715 110.86l-10.133 1.898M136.582 112.758l-3.426 9.722" stroke-width="1.2" stroke="#00f" stroke-miterlimit="10" fill="none"/><path d="M133.156 122.48l-3.422 9.723" stroke-width="1.2" stroke="#000" stroke-miterlimit="10" fill="none"/><path d="M140.473 116.313l-2.74 7.78" stroke-width="1.2" stroke="#00f" stroke-miterlimit="10" fill="none"/><path d="M137.734 124.094l-2.738 7.777" stroke-width="1.2" stroke="#000" stroke-miterlimit="10" fill="none"/><path d="M133.582 107.258h7v11h-7zm0 0" fill="#fff"/><use xlink:href="#b" x="133.582" y="115.921" fill="#00f"/><path d="M129.734 132.203l13.418 15.656M129.734 132.203l-20.265 3.793M140.863 147.055l-3.425 9.722" stroke-width="1.2" stroke="#000" stroke-miterlimit="10" fill="none"/><path d="M137.438 156.777l-3.426 9.723" stroke-width="1.2" stroke="#f00" stroke-miterlimit="10" fill="none"/><path d="M145.438 148.664l-3.426 9.727" stroke-width="1.2" stroke="#000" stroke-miterlimit="10" fill="none"/><path d="M142.012 158.39l-3.422 9.723" stroke-width="1.2" stroke="#f00" stroke-miterlimit="10" fill="none"/><path d="M128.3 161.81h8v11h-8zm0 0" fill="#fff"/><use xlink:href="#a" x="128.301" y="170.472" fill="#f00"/><path d="M109.47 135.996L96.05 120.34M96.05 120.34l-20.27 3.793M75.78 124.133l-13.413-15.656M70.758 125.723L60.023 113.2M68.934 143.578l6.847-19.445M62.367 108.477l-20.27 3.793M42.098 112.27l-6.848 19.445M45.992 115.824l-5.48 15.56M35.25 131.715l13.418 15.656M48.668 147.37l20.266-3.792M49.8 142.223l16.216-3.032" stroke-width="1.2" stroke="#000" stroke-miterlimit="10" fill="none"/><path d="M217.648 97.59l6.71 7.828" stroke-width="1.2" stroke="#00f" stroke-miterlimit="10" fill="none"/><path d="M224.36 105.418l6.706 7.828" stroke-width="1.2" stroke="#000" stroke-miterlimit="10" fill="none"/><path d="M210.648 92.09h14v11h-14zm0 0" fill="#fff"/><g fill="#00f"><use xlink:href="#b" x="210.648" y="100.753"/><use xlink:href="#c" x="217.626" y="100.753"/></g><path d="M231.066 113.246l-6.847 19.445M234.957 116.8l-5.48 15.56M251.332 109.453l-20.266 3.793M224.22 132.69l13.413 15.658M237.633 148.348l20.27-3.793M238.77 143.2l16.21-3.032M257.902 144.555l6.848-19.446M264.75 125.11l-13.418-15.657M259.727 126.7l-10.735-12.524" stroke-width="1.2" stroke="#000" stroke-miterlimit="10" fill="none"/></g></svg>
